X:1
T:The Happiest Day of the Year
T:S.Draper
T:The Happiest Day of the Year
C:S.Draper
%%score 1 { ( 2 4 ) | 3 }
L:1/8
M:4/4
K:C
V:1 treble nm="Treble" snm="Tr."
V:2 treble nm="Piano" snm="Pno."
V:4 treble 
V:3 bass 
V:1
 z8 | z8 | z8 | z4 z2!mf! DD |:!<(! E>F- FG A>_B- B!<)!c |!>(! G6!>)! DD | %6
w: |||1.Are you|low at _ this slow time _ of|year, in the|
w: ||||wor- ry _ to think where _ you|are, you can|
!<(! E>F- FG A>_B- B!<)!c | G6- G!f!f | e>c- cG F>A- Af | e>c- cG F>A- Af | e>d- dc d>c- c_B | %11
w: dark _ not a spark of _ good|cheer? _ Then|lift up _ your voice and _ we'll|help you _ re- joice, you _ can|start with _ your heart in _ the|
w: wor- ship _ the child from _ a-|far. _ 'Cause|all through _ the ag- es _ like|shep- herds _ and sa- ges, _ we've|fol- lowed _ the light of _ the|
!>(! c6!>)!!mf! DD |!<(! E>F- FG A>_B- B!<)!c |!>(! G6!>)! DD |!<(! E>F- FG A>_B- B!<)!c | %15
w: clear. It's the|great- est of _ tales ev- * er|told, of the|frank- in- * cense, myrrh and _ the|
w: star. We can|take you _ a- way from _ this|gloom, with a|cheer- ful _ re- peat of _ our|
 G6- G!f!f | e>c- cG F>A- Af | e>c- cG F>A- Af | e>d- dc d>c- c>_B | c8 |!p! cc A<c- c4 | %21
w: gold. _ The|wise men _ saw grave- ly _ the|shep- herds _ so brave- ly _ a|new world _ from out of _ the|old.|Day is dawn- ing _|
w: tune. _ So|think when _ you're leav- ing _ the|mes- sage _ be- liev- ing _ to|fill up _ your heart if _ there's|room.||
!mp! dd A<d-!<(! d3!<)! d |!mf! ^c>A- AE- E/^FA/- AB | A8 |!p! cc A<c- c4 | %25
w: Christ- mas morn- ing _ the|hap- pi- * est _ day of _ the|year.|Church bells ring- ing _|
w: ||||
!mp! dd A<!<(!d- d3!<)! f |1!f! e>c- cG A>c- cd |!>(! c8!>)! | z4 z2 DD :|2 e>c- cG A>c- cf || %30
w: peo- ple sing- ing _ pro-|claim- ing _ the Christ- child _ is|here.||claim- ing _ the Christ- child, _ the|
w: |||2.Nev- er||
 e>c- cG!<(! A>c- c!<)!f |!ff! e>d- dc d3 d |!>(! c>_B- BA B>B-!>)! BB |!<(! A>G- GF!<)!!f! c4- | %34
w: giv- er _ of light child , dest-|roy- er _ of fear, Em-|man- u- * el here on _ the|hap- pi- * est day|
w: ||||
"^rit." c4 c3 c | c8 |] %36
w: _ of the|year.|
w: ||
V:2
 z4 z2 z!f! [Acf] | [Gce]>[EGc]- [EGc][CEG] [_B,DF]>[CFA]- [CFA][Acf] | %2
 [Gce]>[EGc]- [EGc][CEG] [_B,DF]>[CFA]- [CFA][FAd] | [EGc]4 [DF] z!mf! [F,A,D][F,A,D] |: %4
 E/C/G,/F/ C/G,/G/E/ A/F/C/_B/ F/C/c/C/ | G/E/C/E/ C/G,/E/C/ G/E/C/E/ D/A,/D/F,/ | %6
 E/C/G,/F/ C/G,/G/E/ A/F/C/_B/ F/C/c/C/ | G/E/C/E/ C/G,/E/C/ G/E/C/E/ [EG]!f![Acf] | %8
 [Gce]>[EGc]- [EGc][CEG] [_B,DF]>[CFA]- [CFA][Acf] | [Gce] [EGc]2 [CEG] [_B,DF]>[FA]- [FA][Acf] | %10
 [Gce]>d- dc [F_Bd]>c- c[DFB] | [FAc]3 _B/A/ B/A/F/C/!mf! [G,_B,D]D | %12
 E/C/G,/F/ C/G,/G/E/ A/F/C/_B/ F/C/c/C/ | G/E/C/E/ C/G,/E/C/ G/E/C/E/ D/A,/D/F,/ | %14
 E/C/G,/F/ C/G,/G/E/ A/F/C/_B/ F/C/c/C/ | G/E/C/E/ C/G,/E/C/ G/E/C/E/!f! [EG][Acf] | %16
 [Gce]>[EGc]- [EGc][CEG] [_B,DF]>[CFA]- [CFA][Acf] | [Gce] [EGc]2 [CEG] [_B,DF]>[FA]- [FA][Acf] | %18
 [Gce]>d- dc [F_Bd]>c- c[DFB] | [FAc]3 _B/A/ B/A/F/C/ D/F/A/B/ | %20
!p! [EAc][EAc] A/[EAc]c/ A/E/C/E/ A/c/A/E/ | %21
!mp! [DAd][DAd] [DA]/A[Fd]/!<(! A/F/D/F/ A!<)!!mf![FAd] | %22
 [EA^c]>[^CEA]- [CEA][A,CE] [A,D^F]>[DFA]- [DFA]B |!>(! [^CEA]4!>)! [D^FA]4 | %24
!p! [EAc][EAc] A/[EAc]c/ A/E/=C/E/ A/c/A/E/ |!mp! [DAd][DAd] [DA]/A[Fd]/!<(! A/F/D/F/ A!<)![Acf] |1 %26
!f! [Gce]>[EGc]- [EGc][CEG] [CFA]>[FAc]- [FAc]d |!>(! c8!>)! | [G,CE]>C- CG, [A,CF]2 DD :|2 %29
 [Gce]>[EGc]- [EGc][CEG] [CFA]>[FAc]- [FAc][Acf] || %30
 [Gce]>[EGc]- [EGc][CEG] [CFA]>[FAc]- [FAc][Acf] |!ff! [Gce]>[EGd]- [EGd][EGc] [F_Bd]3 [FBd] | %32
!>(! [Fc]>_B- B[FA] [DB]>[DB]-!>)! [DB][DB] |!<(! A>G- G[DF]!<)!!f! [CFc]4- | %34
 [CGc]4 [CFAc]3 [CFAc] | [EGc]8 |] %36
V:3
!f! z8 | [C,,C,]3 [C,,C,] [_B,,,_B,,]>[F,,,F,,]- [F,,,F,,][F,,,F,,] | %2
 [C,,C,]3 [C,,C,] [_B,,,_B,,]>[F,,,F,,]- [F,,,F,,]-[F,,,F,,F,] | %3
!>(! [E,,E,]>[C,,C,]- [C,,C,][G,,,G,,] [A,,,A,,]>!>)![D,,D,]-!mf! [D,,D,][G,,,G,,] |: %4
 [C,,C,]3 [C,,C,] [C,,C,]3 [C,,C,] | [C,,C,]3 [C,,C,] [C,,C,]3 [C,,C,] | %6
 [C,,C,]3 [C,,C,] [C,,C,]3 [C,,C,] | [C,,C,]3 [C,,C,] [C,,C,]3 [C,,C,] | %8
!f! [C,,C,]3 [C,,C,] [_B,,,_B,,]>[F,,,F,,]- [F,,,F,,]2 | %9
 [C,,C,]3 [C,,C,] [_B,,,_B,,]>[F,,,F,,]- [F,,,F,,][F,,,F,,] | [C,,C,]4 [_B,,,_B,,]3 [B,,,B,,] | %11
 A,,>F,,- F,,C,, D,,2!mf! F,,2 | [C,,C,]3 [C,,C,] [C,,C,]3 [C,,C,] | %13
 [C,,C,]3 [C,,C,] [C,,C,]3 [C,,C,] | [C,,C,]3 [C,,C,] [C,,C,]3 [C,,C,] | %15
 [C,,C,]3 [C,,C,] [C,,C,]3 [C,,C,] |!f! [C,,C,]3 [C,,C,] [_B,,,_B,,]>[F,,,F,,]- [F,,,F,,]2 | %17
 [C,,C,]3 [C,,C,] [_B,,,_B,,]>[F,,,F,,]- [F,,,F,,][F,,,F,,] | [C,,C,]4 [_B,,,_B,,]3 [B,,,B,,] | %19
 A,,>F,,- F,,C,, D,,2 F,,2 |!p! [A,,A,]4 [G,,G,]4 |!mp! [^F,,^F,]4 [=F,,=F,]4 | %22
 [E,,E,]4 [D,,D,]3 D, |!>(! ^C,>A,,- A,,E,,!>)! ^F,,>A,,- A,,B,, |!p! [A,,A,]4 [G,,G,]4 | %25
!mp! [^F,,^F,]4 [=F,,=F,]4 |1!f! [G,,G,]4 [F,,F,]4 | E,>C,- C,G,, A,,>C,- C,D, | [C,,C,]4 G,,4 :|2 %29
 G,/C,/G,,/C,/ G,/C,/[G,,G,] F,/C,/F,,/C,/ F,/C,/[A,,A,] || %30
 G,/C,/G,,/C,/ G,/C,/[G,,G,] F,/C,/F,,/C,/ F,/C,/[A,,A,] | %31
!ff! C,/G,,/C,,/G,,/ C,/G,,/[C,,C,] _B,,/F,,/_B,,,/F,,/ B,,/F,,/[B,,,B,,] | %32
!>(! [A,,,A,,]>[G,,,G,,]- [G,,,G,,][F,,,F,,] [G,,,G,,]3!>)! [G,,,G,,] | %33
!<(! [F,,F,]3 _B,,!<)!!f! A,,>F,,- F,,[F,,F,] | %34
 [E,,E,]>[C,,C,]- [C,,C,][G,,,G,,] [A,,,A,,]>[C,,C,]- [C,,C,][D,,D,] | [C,,C,]8 |] %36
V:4
 x8 | x8 | x8 | x8 |: x8 | x8 | x8 | x8 | x8 | x8 | x8 | x8 | x8 | x8 | x8 | x8 | x8 | x8 | x8 | %19
 x8 | x8 | x8 | x8 | x8 | x8 | x8 |1 x8 | G>E- E[CE] [FA]3 F | x8 :|2 x8 || x8 | x8 | x8 | x8 | %34
 x8 | x8 |] %36

